X: 4960
T: Bren Newman's Britches Full Of Stitches
R: polka
M: 2/4
K: Gmajor
GA|:BG BE|ED GB|[M:4/4]A>A AB A2 GA|
[M:2/4]BG BE|ED dB|1 [M:4/4] AG/A/ BG G2 GA:|2 [M:3/4] AG/A/ BG G2||
|:[M:2/4]GA Bd|ge dB|GA Bc|[M:3/4] dg e>e ed|
[M:2/4] (3Bcd ge|dB GA|Bc dB|1 [M:3/4] A>A AG G2:|2 [M:4/4] A>A AG G2 GA:|

